;FLAVOR:Marlin
;TIME:9586
;Filament used: 7.43563m
;Layer height: 0.2
;MINX:65.925
;MINY:65.913
;MINZ:0.24
;MAXX:154.087
;MAXY:154.072
;MAXZ:23.89
;Generated with Cura_SteamEngine 4.4.0
M140 S50
M105
M190 S50
M104 S200
M105
M109 S200
M82 ;absolute extrusion mode
; Ender 3 Custom Start G-code
G28 ; Home all axes
G29 ; Level the bed
M500 ; Save the settings
G92 E0 ; Reset Extruder
G1 Z2.0 F3000 ; Move Z Axis up little to prevent scratching of Heat Bed
G1 X0.1 Y20 Z0.3 F5000.0 ; Move to start position
G1 X0.1 Y200.0 Z0.3 F1500.0 E15 ; Draw the first line
G1 X0.4 Y200.0 Z0.3 F5000.0 ; Move to side a little
G1 X0.4 Y20 Z0.3 F1500.0 E30 ; Draw the second line
G92 E0 ; Reset Extruder
G1 Z2.0 F3000 ; Move Z Axis up little to prevent scratching of Heat Bed
G92 E0
G92 E0
G1 F2700 E-5
;LAYER_COUNT:114
;LAYER:-6
M107
G0 F9000 X79.522 Y79.641 Z0.24
;TYPE:SUPPORT-INTERFACE
G1 F2700 E0
G1 F1125 X80.177 Y78.998 E0.07327
G1 X81.467 Y77.806 E0.21347
G1 X82.117 Y77.24 E0.28227
G1 X83.461 Y76.142 E0.42081
G1 X84.159 Y75.607 E0.49101
G1 X85.55 Y74.603 E0.62795
G1 X86.268 Y74.117 E0.69715
G1 X87.759 Y73.174 E0.83798
G1 X88.534 Y72.717 E0.9098
G1 X90.037 Y71.891 E1.0467
G1 X90.838 Y71.483 E1.11845
G1 X92.38 Y70.753 E1.25464
G1 X93.243 Y70.377 E1.32978
G1 X94.865 Y69.729 E1.46921
G1 X95.686 Y69.43 E1.53895
G1 X97.302 Y68.894 E1.67486
G1 X98.192 Y68.631 E1.74894
G1 X99.85 Y68.193 E1.88583
G1 X100.733 Y67.988 E1.95819
G1 X102.419 Y67.65 E2.09545
G1 X103.297 Y67.503 E2.16651
G1 X104.962 Y67.273 E2.30068
G1 X105.887 Y67.174 E2.37494
G1 X107.609 Y67.043 E2.5128
G1 X108.527 Y67.003 E2.58614
G1 X110.267 Y66.978 E2.72505
G1 X111.131 Y66.992 E2.79403
G1 X112.863 Y67.072 E2.93243
G1 X113.804 Y67.145 E3.00777
G1 X115.513 Y67.331 E3.145
G1 X116.379 Y67.451 E3.21479
G1 X118.073 Y67.739 E3.35195
G1 X118.971 Y67.92 E3.42507
G1 X120.598 Y68.3 E3.55844
G1 X121.501 Y68.539 E3.63301
G1 X123.123 Y69.024 E3.76815
G1 X124.001 Y69.316 E3.84201
G1 X125.641 Y69.918 E3.98146
G1 X126.429 Y70.234 E4.04923
G1 X128.021 Y70.93 E4.18792
G1 X128.883 Y71.339 E4.26409
G1 X130.398 Y72.115 E4.39996
G1 X131.181 Y72.547 E4.47134
G1 X132.685 Y73.439 E4.61093
G1 X133.415 Y73.902 E4.67993
G1 X134.811 Y74.845 E4.81441
G1 X135.549 Y75.378 E4.88708
G1 X136.913 Y76.427 E5.02443
G1 X137.651 Y77.034 E5.10071
G1 X138.937 Y78.155 E5.23689
G1 X139.627 Y78.798 E5.31218
G1 X140.851 Y80.006 E5.44945
G1 X141.443 Y80.627 E5.51794
G1 X142.614 Y81.934 E5.65802
G1 X143.177 Y82.6 E5.72763
G1 X144.258 Y83.963 E5.8665
G1 X144.804 Y84.698 E5.93958
G1 X145.793 Y86.119 E6.07778
G1 X146.27 Y86.85 E6.14746
G1 X147.179 Y88.338 E6.28665
G1 X147.625 Y89.122 E6.35865
G1 X148.401 Y90.584 E6.49077
G1 X148.801 Y91.396 E6.56303
G1 X149.542 Y93.029 E6.70617
G1 X149.888 Y93.862 E6.77817
G1 X150.491 Y95.438 E6.91287
G1 X150.797 Y96.321 E6.98747
G1 X151.311 Y97.96 E7.12458
G1 X151.547 Y98.798 E7.19408
G1 X151.971 Y100.508 E7.33471
G1 X152.147 Y101.322 E7.40119
G1 X152.46 Y103.014 E7.53854
G1 X152.597 Y103.904 E7.61042
G1 X152.813 Y105.677 E7.753
G1 X152.891 Y106.55 E7.82296
G1 X152.994 Y108.227 E7.95708
G1 X153.022 Y109.197 E8.03454
G1 X153.021 Y110.905 E8.17088
G1 X152.994 Y111.773 E8.2402
G1 X152.884 Y113.536 E8.38121
G1 X152.803 Y114.419 E8.45199
G1 X152.596 Y116.102 E8.58734
G1 X152.462 Y116.974 E8.65777
G1 X152.144 Y118.689 E8.797
G1 X151.955 Y119.563 E8.86838
G1 X151.529 Y121.268 E9.00866
G1 X151.275 Y122.163 E9.08293
G1 X150.763 Y123.783 E9.21855
G1 X150.466 Y124.631 E9.29027
G1 X149.857 Y126.218 E9.42596
G1 X149.545 Y126.965 E9.49058
G1 X148.811 Y128.583 E9.6324
G1 X148.408 Y129.402 E9.70527
G1 X147.579 Y130.96 E9.84614
G1 X147.14 Y131.729 E9.91682
G1 X146.216 Y133.234 E10.0578
G1 X145.75 Y133.945 E10.12565
G1 X144.746 Y135.381 E10.26552
G1 X144.199 Y136.115 E10.33859
G1 X143.126 Y137.461 E10.476
G1 X142.56 Y138.128 E10.54583
G1 X141.411 Y139.407 E10.68307
G1 X140.774 Y140.072 E10.75658
G1 X139.527 Y141.298 E10.89617
G1 X138.884 Y141.892 E10.96605
G1 X137.583 Y143.024 E11.10371
G1 X136.927 Y143.562 E11.17143
G1 X135.546 Y144.624 E11.31049
G1 X134.801 Y145.161 E11.3838
G1 X133.367 Y146.129 E11.52191
G1 X132.609 Y146.608 E11.59348
G1 X131.136 Y147.478 E11.73004
G1 X130.314 Y147.93 E11.80492
G1 X128.779 Y148.712 E11.94244
G1 X128.006 Y149.077 E12.01067
G1 X126.424 Y149.768 E12.14848
G1 X125.547 Y150.118 E12.22385
G1 X123.975 Y150.693 E12.35747
G1 X123.123 Y150.976 E12.42913
G1 X121.47 Y151.469 E12.56682
G1 X120.598 Y151.7 E12.63883
G1 X118.885 Y152.099 E12.77923
G1 X117.983 Y152.278 E12.85264
G1 X116.287 Y152.563 E12.98992
G1 X115.387 Y152.684 E13.06241
G1 X113.668 Y152.867 E13.2004
G1 X112.817 Y152.931 E13.26852
G1 X111.069 Y153.01 E13.4082
G1 X110.15 Y153.022 E13.48156
G1 X108.466 Y152.995 E13.616
G1 X107.587 Y152.955 E13.68624
G1 X105.887 Y152.826 E13.82233
G1 X104.962 Y152.727 E13.89659
G1 X103.214 Y152.484 E14.03747
G1 X102.344 Y152.335 E14.10792
G1 X100.669 Y151.999 E14.24429
G1 X99.769 Y151.787 E14.3181
G1 X98.107 Y151.346 E14.45536
G1 X97.264 Y151.094 E14.5256
G1 X95.593 Y150.538 E14.66617
G1 X94.727 Y150.218 E14.73987
G1 X93.169 Y149.593 E14.87387
G1 X92.38 Y149.248 E14.94261
G1 X90.792 Y148.495 E15.0829
G1 X89.998 Y148.088 E15.15412
G1 X88.484 Y147.254 E15.2921
G1 X87.705 Y146.793 E15.36435
G1 X86.257 Y145.875 E15.50121
G1 X85.497 Y145.36 E15.57449
G1 X84.103 Y144.351 E15.71186
G1 X83.369 Y143.785 E15.78585
G1 X82.031 Y142.687 E15.92401
G1 X81.36 Y142.097 E15.99533
G1 X80.119 Y140.947 E16.13039
G1 X79.444 Y140.28 E16.20614
G1 X78.277 Y139.056 E16.34114
G1 X77.704 Y138.417 E16.40965
G1 X76.561 Y137.063 E16.55109
G1 X75.988 Y136.338 E16.62486
G1 X74.985 Y134.991 E16.75891
G1 X74.476 Y134.261 E16.82995
G1 X73.541 Y132.833 E16.9662
G1 X73.068 Y132.059 E17.03861
G1 X72.204 Y130.542 E17.17797
G1 X71.776 Y129.734 E17.25095
G1 X71.031 Y128.221 E17.38558
G1 X70.65 Y127.382 E17.45913
G1 X69.976 Y125.766 E17.5989
G1 X69.655 Y124.921 E17.67105
G1 X69.101 Y123.332 E17.80538
G1 X68.82 Y122.437 E17.88026
G1 X68.355 Y120.776 E18.01795
G1 X68.138 Y119.902 E18.08983
G1 X67.778 Y118.232 E18.2262
G1 X67.615 Y117.349 E18.29788
G1 X67.357 Y115.66 E18.43426
G1 X67.247 Y114.75 E18.50743
G1 X67.092 Y113.046 E18.64402
G1 X67.04 Y112.188 E18.71263
G1 X66.987 Y110.389 E18.8563
G1 X66.989 Y109.483 E18.92862
G1 X67.043 Y107.753 E19.06678
G1 X67.1 Y106.834 E19.14028
G1 X67.255 Y105.17 E19.27368
G1 X67.367 Y104.267 E19.34632
G1 X67.631 Y102.557 E19.48443
G1 X67.791 Y101.7 E19.55402
G1 X68.161 Y100.002 E19.69275
G1 X68.391 Y99.086 E19.76814
G1 X68.849 Y97.466 E19.90252
G1 X69.127 Y96.588 E19.97603
G1 X69.691 Y94.979 E20.11213
G1 X69.997 Y94.18 E20.18043
G1 X70.657 Y92.602 E20.31697
G1 X71.032 Y91.778 E20.38923
G1 X71.81 Y90.199 E20.52975
G1 X72.246 Y89.381 E20.60374
G1 X73.068 Y87.941 E20.73609
G1 X73.541 Y87.167 E20.8085
G1 X74.484 Y85.726 E20.94597
G1 X75.041 Y84.931 E21.02346
G1 X76.074 Y83.55 E21.16112
G1 X76.607 Y82.879 E21.22953
G1 X77.702 Y81.584 E21.3649
G1 X78.333 Y80.884 E21.44013
G1 X79.522 Y79.641 E21.57743
G0 F9000 X80 Y79.171
G1 F1125 X80 Y140.829 E26.49924
G0 F9000 X81.6 Y142.308
G1 F1125 X81.6 Y77.69 E31.65733
G0 F9000 X83.2 Y76.355
G1 F1125 X83.2 Y143.646 E37.02879
G0 F9000 X84.8 Y144.855
G1 F1125 X84.8 Y75.144 E42.59342
G0 F9000 X86.4 Y74.033
G1 F1125 X86.4 Y145.965 E48.33535
G0 F9000 X88 Y146.967
G1 F1125 X88 Y73.031 E54.23724
G0 F9000 X89.6 Y72.131
G1 F1125 X89.6 Y147.868 E60.28289
G0 F9000 X91.2 Y148.688
G1 F1125 X91.2 Y71.311 E66.45946
G0 F9000 X92.8 Y70.57
G1 F1125 X92.8 Y149.431 E72.75448
G0 F9000 X94.4 Y150.086
G1 F1125 X94.4 Y69.914 E79.15416
G0 F9000 X96 Y69.325
G1 F1125 X96 Y150.673 E85.64771
G0 F9000 X97.6 Y151.194
G1 F1125 X97.6 Y68.805 E92.22436
G0 F9000 X99.2 Y68.364
G1 F1125 X99.2 Y151.636 E98.87149
G0 F9000 X100.8 Y152.025
G1 F1125 X100.8 Y67.974 E105.5808
G0 F9000 X102.4 Y67.653
G1 F1125 X102.4 Y152.344 E112.3412
G0 F9000 X104 Y152.593
G1 F1125 X104 Y67.405 E119.14128
G0 F9000 X105.6 Y67.204
G1 F1125 X105.6 Y152.795 E125.97352
G0 F9000 X107.2 Y152.925
G1 F1125 X107.2 Y67.074 E132.82652
G0 F9000 X108.8 Y66.999
G1 F1125 X108.8 Y153 E139.69149
G0 F9000 X110.4 Y153.019
G1 F1125 X110.4 Y66.981 E146.55942
G0 F9000 X112 Y67.033
G1 F1125 X112 Y152.968 E153.41912
G0 F9000 X113.6 Y152.873
G1 F1125 X113.6 Y67.13 E160.2635
G0 F9000 X115.2 Y67.297
G1 F1125 X115.2 Y152.704 E167.08105
G0 F9000 X116.8 Y152.477
G1 F1125 X116.8 Y67.523 E173.86245
G0 F9000 X118.4 Y67.805
G1 F1125 X118.4 Y152.196 E180.5989
G0 F9000 X120 Y151.84
G1 F1125 X120 Y68.161 E187.27852
G0 F9000 X121.6 Y68.569
G1 F1125 X121.6 Y151.431 E193.89292
G0 F9000 X123.2 Y150.951
G1 F1125 X123.2 Y69.05 E200.43062
G0 F9000 X124.8 Y69.61
G1 F1125 X124.8 Y150.392 E206.87899
G0 F9000 X126.4 Y149.778
G1 F1125 X126.4 Y70.223 E213.22941
G0 F9000 X128 Y70.921
G1 F1125 X128 Y149.08 E219.4684
G0 F9000 X129.6 Y148.294
G1 F1125 X129.6 Y71.707 E225.5819
G0 F9000 X131.2 Y72.559
G1 F1125 X131.2 Y147.441 E231.55931
G0 F9000 X132.8 Y146.488
G1 F1125 X132.8 Y73.512 E237.38457
G0 F9000 X134.4 Y74.568
G1 F1125 X134.4 Y145.432 E243.04124
G0 F9000 X136 Y144.275
G1 F1125 X136 Y75.725 E248.5132
G0 F9000 X137.6 Y76.993
G1 F1125 X137.6 Y143.01 E253.78296
G0 F9000 X139.2 Y141.601
G1 F1125 X139.2 Y78.401 E258.82786
G0 F9000 X140.8 Y79.956
G1 F1125 X140.8 Y140.045 E263.62442
G0 F9000 X142.4 Y138.307
G1 F1125 X142.4 Y81.696 E268.14336
G0 F9000 X144 Y83.638
G1 F1125 X144 Y136.365 E272.35225
G0 F9000 X145.6 Y134.16
G1 F1125 X145.6 Y85.842 E276.2092
G0 F9000 X147.2 Y88.375
G1 F1125 X147.2 Y131.624 E279.66153
G0 F9000 X148.8 Y128.606
G1 F1125 X148.8 Y91.394 E282.63195
G0 F9000 X150.4 Y95.201
G1 F1125 X150.4 Y124.803 E284.99491
G1 F2700 E279.99491
G0 F9000 X151.495 Y124.917
G0 X152.371 Y122.122
G0 X152.989 Y119.813
G0 X152 Y119.355
G1 F2700 E284.99491
G1 F1125 X152 Y100.643 E286.48858
G1 F2700 E281.48858
G0 F9000 X152.982 Y100.157
G0 X152.289 Y97.512
G0 X151.458 Y94.983
G0 X150.472 Y92.498
G0 X149.352 Y90.104
G0 X148.037 Y87.696
G0 X146.625 Y85.45
G0 X145.036 Y83.228
G0 X143.359 Y81.169
G0 X141.525 Y79.173
G0 X139.573 Y77.296
G0 X137.58 Y75.597
G0 X135.425 Y73.977
G0 X133.164 Y72.483
G0 X130.803 Y71.125
G0 X128.438 Y69.95
G0 X125.922 Y68.886
G0 X123.449 Y68.01
G0 X120.855 Y67.266
G0 X118.161 Y66.673
G0 X115.505 Y66.258
G0 X112.873 Y66.006
G0 X110.139 Y65.913
G0 X107.513 Y65.983
G0 X104.839 Y66.216
G0 X102.136 Y66.621
G0 X99.501 Y67.183
G0 X96.931 Y67.896
G0 X94.342 Y68.789
G0 X91.934 Y69.786
G0 X89.494 Y70.974
G0 X87.15 Y72.298
G0 X84.883 Y73.77
G0 X82.701 Y75.386
G0 X80.64 Y77.118
G0 X79.532 Y78.171
G0 X77.631 Y80.08
G0 X78.4 Y80.813
G1 F2700 E286.48858
G1 F1125 X78.4 Y139.185 E291.14809
G0 F9000 X76.8 Y137.346
G1 F1125 X76.8 Y82.65 E295.51416
G0 F9000 X75.2 Y84.718
G1 F1125 X75.2 Y135.279 E299.55016
G0 F9000 X73.6 Y132.923
G1 F1125 X73.6 Y87.076 E303.20986
G0 F9000 X72 Y89.842
G1 F1125 X72 Y130.156 E306.4279
G0 F9000 X70.4 Y126.782
G1 F1125 X70.4 Y93.216 E309.10728
G1 F2700 E304.10728
G0 F9000 X69.418 Y92.806
G0 X68.986 Y93.889
G0 X67.831 Y97.156
G0 X68.8 Y97.639
G1 F2700 E309.10728
G1 F1125 X68.8 Y122.365 E311.08102
G1 F2700 E306.08102
G0 F9000 X67.776 Y122.653
G0 X67.101 Y120.142
G0 X66.668 Y118.025
G0 X66.188 Y114.854
G0 X67.2 Y114.233
G1 F2700 E311.08102
G1 F1125 X67.2 Y105.76 E311.75737
G1 F2700 E306.75737
G0 F300 X67.2 Y105.76 Z0.54
G0 F9000 X66.185 Y105.169
G0 X66.748 Y101.483
G0 X67.365 Y98.804
G0 X68.121 Y96.242
G0 X69.007 Y93.787
G0 X69.61 Y92.387
G0 X70.827 Y89.785
G0 X71.81 Y90.197
;TIME_ELAPSED:223.406378
;LAYER:-5
M140 S50
;TYPE:SUPPORT
G1 F2700 E311.75737
G1 F1125 X71.344 Y91.143 E311.86259
G1 X128.866 Y148.665 E319.97957
G1 X128.778 Y148.71 E319.98943
G1 X128.006 Y149.076 E320.07468
G1 X127.906 Y149.119 E320.08554
G1 X70.885 Y92.098 E328.13182
G1 X70.656 Y92.601 E328.18697
G1 X70.455 Y93.082 E328.23898
G1 X126.922 Y149.549 E336.20709
G1 X126.424 Y149.767 E336.26133
G1 X125.924 Y149.966 E336.31503
G1 X70.038 Y94.079 E344.20122
G1 X69.997 Y94.178 E344.21191
G1 X69.691 Y94.978 E344.29737
G1 X69.647 Y95.103 E344.31059
G1 X124.898 Y150.354 E352.10711
G1 X123.974 Y150.692 E352.20528
G1 X123.859 Y150.729 E352.21733
G1 X69.28 Y96.15 E359.91902
G1 X69.127 Y96.587 E359.96522
G1 X68.928 Y97.213 E360.03076
G1 X122.79 Y151.074 E367.6312
G1 X121.7 Y151.399 E367.74469
G1 X68.61 Y98.309 E375.23627
G1 X68.391 Y99.085 E375.31672
G1 X68.307 Y99.419 E375.35108
G1 X120.588 Y151.701 E382.72857
G1 X119.44 Y151.967 E382.84615
G1 X68.037 Y100.564 E390.09967
G1 X67.791 Y101.699 E390.21555
G1 X67.785 Y101.726 E390.21831
G1 X118.277 Y152.218 E397.34328
G1 X117.982 Y152.277 E397.3733
G1 X117.074 Y152.429 E397.46516
G1 X67.573 Y102.928 E404.45028
G1 X67.383 Y104.153 E404.57397
G1 X115.85 Y152.62 E411.41319
G1 X115.387 Y152.682 E411.4598
G1 X114.583 Y152.767 E411.54047
G1 X67.231 Y105.415 E418.22235
G1 X67.11 Y106.708 E418.35193
G1 X113.295 Y152.893 E424.86913
G1 X112.817 Y152.93 E424.91697
G1 X111.956 Y152.969 E425.00297
G1 X67.033 Y108.045 E431.34216
G1 X66.99 Y109.416 E431.47903
G1 X110.588 Y153.015 E437.63125
G1 X110.149 Y153.021 E437.67506
G1 X109.164 Y153.005 E437.77335
G1 X66.999 Y110.84 E443.72329
G1 X67.04 Y112.187 E443.85776
G1 X67.046 Y112.301 E443.86915
G1 X107.705 Y152.959 E449.6065
G1 X107.587 Y152.954 E449.61828
G1 X106.177 Y152.846 E449.75939
G1 X67.163 Y113.832 E455.26468
G1 X67.247 Y114.749 E455.35657
G1 X67.326 Y115.409 E455.42289
G1 X104.59 Y152.674 E460.68131
G1 X103.213 Y152.483 E460.82003
G1 X102.938 Y152.435 E460.84788
G1 X67.571 Y117.069 E465.83848
G1 X67.614 Y117.348 E465.86664
G1 X67.777 Y118.231 E465.95624
G1 X67.903 Y118.815 E466.01585
G1 X101.19 Y152.102 E470.71301
G1 X100.669 Y151.998 E470.76602
G1 X99.768 Y151.786 E470.85838
G1 X99.348 Y151.674 E470.90175
G1 X68.322 Y120.648 E475.27985
G1 X68.354 Y120.775 E475.29292
G1 X68.82 Y122.436 E475.46505
G1 X68.877 Y122.617 E475.48399
G1 X97.39 Y151.13 E479.50748
G1 X97.263 Y151.093 E479.52068
G1 X95.593 Y150.536 E479.69634
G1 X95.259 Y150.413 E479.73185
G1 X69.596 Y124.75 E483.35318
G1 X69.655 Y124.92 E483.37113
G1 X69.975 Y125.765 E483.46129
G1 X70.533 Y127.101 E483.60576
G1 X92.909 Y149.478 E486.76332
G1 X92.379 Y149.246 E486.82105
G1 X90.791 Y148.494 E486.99637
G1 X90.216 Y148.198 E487.0609
G1 X71.804 Y129.787 E489.65896
G1 X72.204 Y130.541 E489.74413
G1 X73.068 Y132.057 E489.91824
G1 X73.541 Y132.832 E490.00883
G1 X73.742 Y133.139 E490.04545
G1 X86.858 Y146.255 E491.89626
G1 X86.257 Y145.874 E491.96726
G1 X85.496 Y145.359 E492.05895
G1 X84.103 Y144.35 E492.23057
G1 X83.369 Y143.784 E492.32306
G1 X82.03 Y142.686 E492.49584
G1 X81.359 Y142.095 E492.58506
G1 X80.332 Y141.143 E492.72479
G1 X80.119 Y140.946 E492.75374
G1 X79.444 Y140.279 E492.84842
G0 F9000 X78.947 Y139.758
G1 F1125 X80.332 Y141.143 E493.04386
G1 F2700 E488.04386
G0 F9000 X79.381 Y141.714
G0 X76.9 Y139.117
G0 X75.138 Y136.979
G0 X73.584 Y134.842
G0 X72.155 Y132.606
G0 X70.827 Y130.215
G0 X69.672 Y127.801
G0 X68.653 Y125.281
G0 X67.799 Y122.737
G0 X67.101 Y120.142
G0 X66.565 Y117.527
G0 X66.188 Y114.854
G0 X65.977 Y112.229
G0 X65.925 Y109.457
G0 X66.04 Y106.742
G0 X66.315 Y104.108
G0 X66.748 Y101.483
G0 X67.365 Y98.804
G0 X68.121 Y96.242
G0 X69.007 Y93.787
G0 X69.61 Y92.387
G0 X70.827 Y89.785
G0 X71.81 Y90.195
G1 F2700 E493.04386
G1 F1125 X129.803 Y148.188 E501.2273
G1 X130.314 Y147.929 E501.28446
G1 X130.729 Y147.7 E501.33176
G1 X72.305 Y89.275 E509.57609
G1 X72.819 Y88.375 E509.6795
G1 X131.629 Y147.185 E517.97823
G1 X132.518 Y146.66 E518.08125
G1 X73.344 Y87.486 E526.43134
G1 X73.54 Y87.166 E526.46878
G1 X73.895 Y86.623 E526.53351
G1 X133.386 Y146.114 E534.92834
G1 X134.23 Y145.544 E535.02996
G1 X74.454 Y85.768 E543.465
G1 X74.483 Y85.725 E543.47017
G1 X75.036 Y84.936 E543.56631
G1 X135.068 Y144.967 E552.0374
G1 X135.546 Y144.623 E552.09616
G1 X135.88 Y144.365 E552.13828
G1 X75.641 Y84.126 E560.63865
G1 X76.074 Y83.549 E560.71063
G1 X76.252 Y83.324 E560.73926
G1 X136.679 Y143.75 E569.26609
G1 X136.926 Y143.561 E569.29712
G1 X137.463 Y143.12 E569.36646
G1 X76.887 Y82.544 E577.91439
G1 X77.536 Y81.779 E578.01449
G1 X138.223 Y142.465 E586.57801
G1 X138.884 Y141.89 E586.66542
G1 X138.976 Y141.805 E586.67792
G1 X78.201 Y81.029 E595.254
